X: 1
T:Gathering Peascods
M:C|
C:Trad.
S:Playford
N:DM I: 1651-1690, transposed from A to G
Q:400
O:English
R:Reel
K:G
"G"d4d2d2 |B3 c d2 d2 | "C"e2 d2 c2 B2 | "D"A6 B2 | A2 G2 G2 F2 |1 "G"G6 z2:|2 "G"G6||\
G2|"D" F2 D2 F2 G2 | A4   B2 A2 | "G"GA B2 A2 G2 | "D"F6 F2 | "A"E2 D2 E3 D  | "D"D6 :|\
d2 | "G"B2 G2 G2 AB |"C"c6      c2 | "G"B2 G2 G2 AB | "C"c6 d2 |\
"G"B2 G2 G2 AB |"C" c3 d e2 dc | "G"B2 cB "D"A3 G  | "G"G6    :|
